src/logos/logo-en.svg

<svg height="78" viewBox="0 0 693 78" width="693" xmlns="http://www.w3.org/2000/svg"><g fill="none" fill-rule="evenodd" transform="translate(0 14)"><path d="m270.4 27.5c-.4-15-13.1-26.8-28.1-26.8h-17.7c-15.2 0-27.5 12.3-27.5 27.5 0 7.9 3.4 15.4 9.3 20.6l-6.1 14.4 15.1-9.1c2.9 1.1 6 1.6 9.2 1.6h18.4c15.4 0 27.8-12.7 27.4-28.2zm-27.3 18.2h-18.3c-7.9 0-15.9-6.2-17.4-14-2.2-11.2 6.3-21 17.2-21h18.3c7.9 0 15.9 6.2 17.4 14 2.1 11.2-6.4 21-17.2 21z" fill="#d8352a"/><g fill="#383838" fill-rule="nonzero"><path d="m.1 12.4v-9.2h41v9.2h-15.1v40.7h-11v-40.7z"/><path d="m56.2 3.2v19.2h20.2v-19.2h11v50h-11v-21.6h-20.2v21.6h-11v-50z"/><path d="m129.2 3.2v9.2h-26.4v10.7h24.2v8.5h-24.2v12.2h26.9v9.2h-37.9v-50z"/><path d="m181 16.5c-.7-1.1-1.5-2-2.4-2.8-2-1.6-4.6-2.5-7.2-2.5-2.2-.1-4.4.4-6.3 1.4-1.7.9-3.1 2.2-4.2 3.9s-1.9 3.5-2.4 5.5c-.5 2.1-.7 4.2-.7 6.4 0 2.1.2 4.1.7 6.1.5 1.9 1.3 3.7 2.4 5.4 1.1 1.6 2.5 2.9 4.2 3.8 1.9 1 4.1 1.5 6.3 1.4 2.9.2 5.8-1 7.9-3.1 2-2.3 3.2-5.1 3.5-8.1h10.6c-.2 2.9-1 5.8-2.2 8.5-1.1 2.4-2.7 4.6-4.6 6.4s-4.2 3.2-6.7 4.1c-2.7 1-5.6 1.4-8.5 1.4-3.5.1-7.1-.6-10.3-2-2.9-1.2-5.6-3.1-7.7-5.5s-3.8-5.2-4.8-8.2c-1.1-3.3-1.7-6.7-1.7-10.2s.5-7 1.7-10.4c1.1-3.1 2.7-5.9 4.8-8.4 2.1-2.4 4.8-4.4 7.8-5.6 5.8-2.4 12.2-2.7 18.1-.8 2.4.8 4.6 1.9 6.6 3.5 2 1.5 3.6 3.5 4.8 5.6 1.3 2.4 2.1 5 2.4 7.7h-10.7c-.4-1.3-.8-2.4-1.4-3.5z"/><path d="m286.4 3.2 20.9 33.5h.1v-33.5h10.3v50h-11l-20.8-33.5h-.1v33.5h-10.3v-50z"/><path d="m337.4 53.2-16.2-50h11.3l11.1 35.1h.1l11.3-35.1h11.3l-16.6 50z"/><path d="m407.3 3.2v9.2h-26.4v10.7h24.2v8.5h-24.2v12.2h27v9.2h-37.9v-50z"/><path d="m438.5 3.2c2.1 0 4.1.3 6 1.1 1.7.7 3.3 1.7 4.6 3 1.3 1.2 2.3 2.7 2.9 4.4.7 1.7 1 3.5 1 5.4.1 2.7-.6 5.3-1.9 7.6-1.4 2.3-3.5 4-6 4.9v.1c1.2.3 2.4.9 3.4 1.7.9.8 1.6 1.7 2.2 2.7.6 1.1 1.1 2.2 1.3 3.4.3 1.2.4 2.5.5 3.8 0 .8.1 1.7.1 2.8s.1 2.2.2 3.3.3 2.1.6 3.2c.2.9.6 1.8 1.2 2.6h-11c-.7-1.8-1-3.7-1.1-5.7-.1-2.2-.4-4.3-.6-6.3-.2-2.1-1-4.1-2.4-5.7-1.2-1.2-3.2-1.8-6-1.8h-11v19.5h-11v-50zm-3.9 22.6c2.5 0 4.4-.6 5.7-1.7s1.9-2.9 1.9-5.5c0-2.4-.6-4.2-1.9-5.3s-3.2-1.6-5.7-1.6h-12v14.1z"/><path d="m467.9 40.8c.6 1.1 1.4 2.1 2.4 2.8 1.1.8 2.3 1.3 3.5 1.6 1.4.4 2.8.5 4.2.5 1.1 0 2.1-.1 3.1-.2 1.1-.1 2.2-.5 3.1-.9 1-.4 1.8-1.1 2.5-1.9.7-.9 1-2 1-3.1 0-1.2-.4-2.4-1.3-3.3-1-.9-2.1-1.6-3.4-2.1-1.5-.6-3.1-1.1-4.8-1.5-1.8-.4-3.6-.9-5.4-1.4-1.9-.5-3.7-1-5.5-1.7-1.7-.6-3.3-1.5-4.8-2.6-3.1-2.3-4.9-6-4.7-9.9-.1-2.3.5-4.6 1.6-6.7 1.1-1.9 2.6-3.5 4.4-4.7 1.8-1.3 3.9-2.2 6-2.8 2.2-.6 4.4-.9 6.7-.9 2.5 0 5.1.3 7.5.9 2.3.5 4.5 1.5 6.4 2.8s3.4 3 4.4 5c1.2 2.3 1.7 4.8 1.6 7.4h-10.6c0-1.3-.4-2.6-1-3.7-.5-.9-1.2-1.7-2.1-2.3s-1.9-1-3-1.2c-1.2-.2-2.5-.4-3.7-.4-.9 0-1.8.1-2.7.3s-1.7.5-2.4 1-1.3 1-1.8 1.8-.7 1.7-.7 2.7c0 .8.2 1.7.6 2.4.6.8 1.3 1.3 2.2 1.7 1.5.6 3 1.1 4.5 1.5 1.9.5 4.5 1.2 7.6 2 .9.2 2.2.5 3.9 1 1.8.5 3.4 1.3 4.9 2.3 1.7 1.1 3.1 2.6 4.2 4.3 1.3 2.1 1.9 4.5 1.8 6.9 0 2.2-.4 4.4-1.3 6.4s-2.3 3.7-4 5.1c-1.9 1.5-4.1 2.6-6.5 3.3-2.9.8-6 1.2-9 1.2-2.7 0-5.4-.3-8-1-2.5-.6-4.8-1.7-6.9-3.2-2-1.5-3.6-3.4-4.7-5.6-1.2-2.5-1.8-5.2-1.7-8h11c-.1 1.4.2 2.9.9 4.2z"/><path d="m528.6 3.2 18.7 50h-11.4l-3.8-11.2h-18.7l-3.9 11.1h-11.1l18.9-50zm.6 30.6-6.3-18.3h-.1l-6.5 18.3z"/><path d="m538.1 12.4v-9.2h40.9v9.2h-15v40.7h-11v-40.7z"/><path d="m594.2 3.2v50h-11v-50z"/><path d="m599.4 18c1.1-3.1 2.7-5.9 4.8-8.4 2.1-2.4 4.8-4.4 7.8-5.6 6.6-2.7 14.1-2.7 20.7 0 2.9 1.3 5.6 3.2 7.7 5.6 2.1 2.5 3.8 5.3 4.8 8.4 1.1 3.3 1.7 6.9 1.7 10.4s-.5 6.9-1.7 10.2c-1.1 3-2.7 5.8-4.8 8.2s-4.8 4.2-7.7 5.5c-6.6 2.7-14 2.7-20.7 0-2.9-1.2-5.6-3.1-7.7-5.5s-3.8-5.2-4.8-8.2c-1.1-3.3-1.7-6.7-1.7-10.2-.1-3.5.5-7.1 1.6-10.4zm10.1 16.5c.5 1.9 1.2 3.7 2.3 5.4 1.1 1.6 2.5 2.9 4.2 3.8 4 1.9 8.6 1.9 12.6 0 1.7-.9 3.1-2.2 4.2-3.8s1.9-3.4 2.3-5.4c.5-2 .7-4.1.7-6.1 0-2.1-.2-4.3-.7-6.4-.4-2-1.2-3.8-2.3-5.5-1.1-1.6-2.5-2.9-4.2-3.9-4-1.9-8.6-1.9-12.6 0-1.7.9-3.1 2.3-4.2 3.9-1.1 1.7-1.9 3.5-2.3 5.5-.5 2.1-.7 4.2-.7 6.4-.1 2 .2 4.1.7 6.1z"/><path d="m661.1 3.2 20.9 33.5h.1v-33.5h10.3v50h-11l-20.8-33.5h-.1v33.5h-10.3v-50z"/></g></g></svg>

<?xml version="1.0" encoding="UTF-8"?>
<svg width="693px" height="78px" viewBox="0 0 693 78" version="1.1" xmlns="http://www.w3.org/2000/svg" xmlns:xlink="http://www.w3.org/1999/xlink">
    <!-- Generator: Sketch 55.1 (78136) - https://sketchapp.com -->
    <title>logo-en</title>
    <desc>Created with Sketch.</desc>
    <g id="logo-en" stroke="none" stroke-width="1" fill="none" fill-rule="evenodd">
        <g id="TC_Horizontal-ENG" transform="translate(0.000000, 14.000000)">
            <path d="M270.4,27.5 C270,12.5 257.3,0.7 242.3,0.7 L224.6,0.7 C209.4,0.7 197.1,13 197.1,28.2 C197.1,36.1 200.5,43.6 206.4,48.8 L200.3,63.2 L215.4,54.1 C218.3,55.2 221.4,55.7 224.6,55.7 L243,55.7 C258.4,55.7 270.8,43 270.4,27.5 Z M243.1,45.7 L224.8,45.7 C216.9,45.7 208.9,39.5 207.4,31.7 C205.2,20.5 213.7,10.7 224.6,10.7 L242.9,10.7 C250.8,10.7 258.8,16.9 260.3,24.7 C262.4,35.9 253.9,45.7 243.1,45.7 Z" id="Shape" fill="#D8352A"></path>
            <polygon id="Path" fill="#383838" fill-rule="nonzero" points="0.1 12.4 0.1 3.2 41.1 3.2 41.1 12.4 26 12.4 26 53.1 15 53.1 15 12.4"></polygon>
            <polygon id="Path" fill="#383838" fill-rule="nonzero" points="56.2 3.2 56.2 22.4 76.4 22.4 76.4 3.2 87.4 3.2 87.4 53.2 76.4 53.2 76.4 31.6 56.2 31.6 56.2 53.2 45.2 53.2 45.2 3.2"></polygon>
            <polygon id="Path" fill="#383838" fill-rule="nonzero" points="129.2 3.2 129.2 12.4 102.8 12.4 102.8 23.1 127 23.1 127 31.6 102.8 31.6 102.8 43.8 129.7 43.8 129.7 53 91.8 53 91.8 3"></polygon>
            <path d="M181,16.5 C180.3,15.4 179.5,14.5 178.6,13.7 C176.6,12.1 174,11.2 171.4,11.2 C169.2,11.1 167,11.6 165.1,12.6 C163.4,13.5 162,14.8 160.9,16.5 C159.8,18.2 159,20 158.5,22 C158,24.1 157.8,26.2 157.8,28.4 C157.8,30.5 158,32.5 158.5,34.5 C159,36.4 159.8,38.2 160.9,39.9 C162,41.5 163.4,42.8 165.1,43.7 C167,44.7 169.2,45.2 171.4,45.1 C174.3,45.3 177.2,44.1 179.3,42 C181.3,39.7 182.5,36.9 182.8,33.9 L193.4,33.9 C193.2,36.8 192.4,39.7 191.2,42.4 C190.1,44.8 188.5,47 186.6,48.8 C184.7,50.6 182.4,52 179.9,52.9 C177.2,53.9 174.3,54.3 171.4,54.3 C167.9,54.4 164.3,53.7 161.1,52.3 C158.2,51.1 155.5,49.2 153.4,46.8 C151.3,44.4 149.6,41.6 148.6,38.6 C147.5,35.3 146.9,31.9 146.9,28.4 C146.9,24.9 147.4,21.4 148.6,18 C149.7,14.9 151.3,12.1 153.4,9.6 C155.5,7.2 158.2,5.2 161.2,4 C167,1.6 173.4,1.3 179.3,3.2 C181.7,4 183.9,5.1 185.9,6.7 C187.9,8.2 189.5,10.2 190.7,12.3 C192,14.7 192.8,17.3 193.1,20 L182.4,20 C182,18.7 181.6,17.6 181,16.5 Z" id="Path" fill="#383838" fill-rule="nonzero"></path>
            <polygon id="Path" fill="#383838" fill-rule="nonzero" points="286.4 3.2 307.3 36.7 307.4 36.7 307.4 3.2 317.7 3.2 317.7 53.2 306.7 53.2 285.9 19.7 285.8 19.7 285.8 53.2 275.5 53.2 275.5 3.2"></polygon>
            <polygon id="Path" fill="#383838" fill-rule="nonzero" points="337.4 53.2 321.2 3.2 332.5 3.2 343.6 38.3 343.7 38.3 355 3.2 366.3 3.2 349.7 53.2"></polygon>
            <polygon id="Path" fill="#383838" fill-rule="nonzero" points="407.3 3.2 407.3 12.4 380.9 12.4 380.9 23.1 405.1 23.1 405.1 31.6 380.9 31.6 380.9 43.8 407.9 43.8 407.9 53 370 53 370 3"></polygon>
            <path d="M438.5,3.2 C440.6,3.2 442.6,3.5 444.5,4.3 C446.2,5 447.8,6 449.1,7.3 C450.4,8.5 451.4,10 452,11.7 C452.7,13.4 453,15.2 453,17.1 C453.1,19.8 452.4,22.4 451.1,24.7 C449.7,27 447.6,28.7 445.1,29.6 L445.1,29.7 C446.3,30 447.5,30.6 448.5,31.4 C449.4,32.2 450.1,33.1 450.7,34.1 C451.3,35.2 451.8,36.3 452,37.5 C452.3,38.7 452.4,40 452.5,41.3 C452.5,42.1 452.6,43 452.6,44.1 C452.6,45.2 452.7,46.3 452.8,47.4 C452.9,48.5 453.1,49.5 453.4,50.6 C453.6,51.5 454,52.4 454.6,53.2 L443.6,53.2 C442.9,51.4 442.6,49.5 442.5,47.5 C442.4,45.3 442.1,43.2 441.9,41.2 C441.7,39.1 440.9,37.1 439.5,35.5 C438.3,34.3 436.3,33.7 433.5,33.7 L422.5,33.7 L422.5,53.2 L411.5,53.2 L411.5,3.2 L438.5,3.2 Z M434.6,25.8 C437.1,25.8 439,25.2 440.3,24.1 C441.6,23 442.2,21.2 442.2,18.6 C442.2,16.2 441.6,14.4 440.3,13.3 C439,12.2 437.1,11.7 434.6,11.7 L422.6,11.7 L422.6,25.8 L434.6,25.8 L434.6,25.8 Z" id="Shape" fill="#383838" fill-rule="nonzero"></path>
            <path d="M467.9,40.8 C468.5,41.9 469.3,42.9 470.3,43.6 C471.4,44.4 472.6,44.9 473.8,45.2 C475.2,45.6 476.6,45.7 478,45.7 C479.1,45.7 480.1,45.6 481.1,45.5 C482.2,45.4 483.3,45 484.2,44.6 C485.2,44.2 486,43.5 486.7,42.7 C487.4,41.8 487.7,40.7 487.7,39.6 C487.7,38.4 487.3,37.2 486.4,36.3 C485.4,35.4 484.3,34.7 483,34.2 C481.5,33.6 479.9,33.1 478.2,32.7 C476.4,32.3 474.6,31.8 472.8,31.3 C470.9,30.8 469.1,30.3 467.3,29.6 C465.6,29 464,28.1 462.5,27 C459.4,24.7 457.6,21 457.8,17.1 C457.7,14.8 458.3,12.5 459.4,10.4 C460.5,8.5 462,6.9 463.8,5.7 C465.6,4.4 467.7,3.5 469.8,2.9 C472,2.3 474.2,2 476.5,2 C479,2 481.6,2.3 484,2.9 C486.3,3.4 488.5,4.4 490.4,5.7 C492.3,7 493.8,8.7 494.8,10.7 C496,13 496.5,15.5 496.4,18.1 L485.8,18.1 C485.8,16.8 485.4,15.5 484.8,14.4 C484.3,13.5 483.6,12.7 482.7,12.1 C481.8,11.5 480.8,11.1 479.7,10.9 C478.5,10.7 477.2,10.5 476,10.5 C475.1,10.5 474.2,10.6 473.3,10.8 C472.4,11 471.6,11.3 470.9,11.8 C470.2,12.3 469.6,12.8 469.1,13.6 C468.6,14.4 468.4,15.3 468.4,16.3 C468.4,17.1 468.6,18 469,18.7 C469.6,19.5 470.3,20 471.2,20.4 C472.7,21 474.2,21.5 475.7,21.9 C477.6,22.4 480.2,23.1 483.3,23.9 C484.2,24.1 485.5,24.4 487.2,24.9 C489,25.4 490.6,26.2 492.1,27.2 C493.8,28.3 495.2,29.8 496.3,31.5 C497.6,33.6 498.2,36 498.1,38.4 C498.1,40.6 497.7,42.8 496.8,44.8 C495.9,46.8 494.5,48.5 492.8,49.9 C490.9,51.4 488.7,52.5 486.3,53.2 C483.4,54 480.3,54.4 477.3,54.4 C474.6,54.4 471.9,54.1 469.3,53.4 C466.8,52.8 464.5,51.7 462.4,50.2 C460.4,48.7 458.8,46.8 457.7,44.6 C456.5,42.1 455.9,39.4 456,36.6 L467,36.6 C466.9,38 467.2,39.5 467.9,40.8 Z" id="Path" fill="#383838" fill-rule="nonzero"></path>
            <path d="M528.6,3.2 L547.3,53.2 L535.9,53.2 L532.1,42 L513.4,42 L509.5,53.1 L498.4,53.1 L517.3,3.1 L528.6,3.2 Z M529.2,33.8 L522.9,15.5 L522.8,15.5 L516.3,33.8 L529.2,33.8 Z" id="Shape" fill="#383838" fill-rule="nonzero"></path>
            <polygon id="Path" fill="#383838" fill-rule="nonzero" points="538.1 12.4 538.1 3.2 579 3.2 579 12.4 564 12.4 564 53.1 553 53.1 553 12.4"></polygon>
            <polygon id="Path" fill="#383838" fill-rule="nonzero" points="594.2 3.2 594.2 53.2 583.2 53.2 583.2 3.2"></polygon>
            <path d="M599.4,18 C600.5,14.9 602.1,12.1 604.2,9.6 C606.3,7.2 609,5.2 612,4 C618.6,1.3 626.1,1.3 632.7,4 C635.6,5.3 638.3,7.2 640.4,9.6 C642.5,12.1 644.2,14.9 645.2,18 C646.3,21.3 646.9,24.9 646.9,28.4 C646.9,31.9 646.4,35.3 645.2,38.6 C644.1,41.6 642.5,44.4 640.4,46.8 C638.3,49.2 635.6,51 632.7,52.3 C626.1,55 618.7,55 612,52.3 C609.1,51.1 606.4,49.2 604.3,46.8 C602.2,44.4 600.5,41.6 599.5,38.6 C598.4,35.3 597.8,31.9 597.8,28.4 C597.7,24.9 598.3,21.3 599.4,18 Z M609.5,34.5 C610,36.4 610.7,38.2 611.8,39.9 C612.9,41.5 614.3,42.8 616,43.7 C620,45.6 624.6,45.6 628.6,43.7 C630.3,42.8 631.7,41.5 632.8,39.9 C633.9,38.3 634.7,36.5 635.1,34.5 C635.6,32.5 635.8,30.4 635.8,28.4 C635.8,26.3 635.6,24.1 635.1,22 C634.7,20 633.9,18.2 632.8,16.5 C631.7,14.9 630.3,13.6 628.6,12.6 C624.6,10.7 620,10.7 616,12.6 C614.3,13.5 612.9,14.9 611.8,16.5 C610.7,18.2 609.9,20 609.5,22 C609,24.1 608.8,26.2 608.8,28.4 C608.7,30.4 609,32.5 609.5,34.5 Z" id="Shape" fill="#383838" fill-rule="nonzero"></path>
            <polygon id="Path" fill="#383838" fill-rule="nonzero" points="661.1 3.2 682 36.7 682.1 36.7 682.1 3.2 692.4 3.2 692.4 53.2 681.4 53.2 660.6 19.7 660.5 19.7 660.5 53.2 650.2 53.2 650.2 3.2"></polygon>
        </g>
    </g>
</svg>
